X: 143110
M: C
L: 1/8
K: G
|:\
vD2 uG>uA (3BBB B>e | d>BG>A (3BBB B>e |\
d>AF>G (3AAA A>B | A>GF>E (3DFA d2 |\
d>^cd>e (3(fgf) (3(edc) | B2d2B4 :|
|:\
e>^de>=f e>fe>=d | c>dc>B A>Bc>^c |\
d>^cd>e d>ed>=c | B>cB>A G>AG>F |\
E>^GA>B c>de2 | D>FG>A B>cd2 |\
^c>df>e d>=cB>A | G2B2G4 H:|


